X:0103
T:Circassian Circle
P:Circassian Circle
C:Traditional
R:Reel (nx32)
B:RSCDS 1-3
Z:Anselm Lingnau <anselm@strathspey.org>
M:2/4
L:1/16
K:Bb
|:dc|"Bb"BFdc B2d2|BFdc B2d2|"F7"cFed c2e2|cdcB AFGA|
     "Bb"BFdc B2d2|BFdc B2d2|"F7"cdcB AFGA|"Bb"B2[d2F2][B2F2]:|
|:f2|"Bb"dBfe d2f2|dBfd bfdB|"F7"cAed c2e2|cdcB Acf2|
     "Bb"dBfe d2f2|dBfd bfdB|"F7"cdcB AFGA|"Bb"B2[d2F2][B2D2]:|
